X:1
T:Das Vater unser
T:Balthasar Resinarius
T:Source : DDT 34---Leipzig---Breitkopf & Härtel---J.Wolf---1908. First print : Newe Deudsche Geistliche Gesenge---Wittemberg---G.Rhau---1544. Editor :  André Vierendeels (31/08/17).  
T:Das Vater unser
T:©
T:©
T:©
T:©
T:©
C:Balthasar Resinarius
Z:©
%%score [ 1 [ 2 3 ] 4 ]
L:1/8
Q:1/4=120
M:2/2
K:C
V:1 treble nm="Soprano" snm="S"
V:2 treble-8 nm="Tenor 1" snm="T 1"
V:3 treble-8 nm="Tenor 2" snm="T 2"
V:4 bass nm="Bass" snm="B"
V:1
 z8 | z8 | z8 | G4 A4 | B4 B4 | z2 c2 B2 dc | BA G4 FE | D2 d2 c2 A2 | AG G4 F2 | G3 F D2 E2 | %10
w: |||Va- ter|un- ser,|der du bist _|_ _ _ in _|Him- * * *||* * mel, ge-|
 A3 G E2 F2- | F2 E2 F4 | G4 F4 | EDEF G3 A/B/ | c2 A3 GGF | A4 c4- | c4 B4 | A4 A4 | G4 G3 A | %19
w: hei- li- get wer-|* de dein|Na- *|||me, zu|_ komm|dein Reich,|dein Wil- *|
 Bcdc BA B2 | c4 B2 A2- | AF G2 A4- | A4 z4 | z2 A2 G2 A2- | AG G4 F2 | G2 B2 A3 B | c4 B3 A | %27
w: |le ge- sche-|* * * he|_|als im Him-|* * mel und|auf Er- * *||
 G2 G3 E F2 | GFED E2 c2 | cBAG F3 E/F/ | G4 G4 | A4 G2 E2 | F3 G A3 B | c8 | A6 GF | E2 G4 F2 | %36
w: den, [und _ auf|Er- * * * den.] Un-|ser _ _ _ täg- * *|* lig|Brot gieb uns|heu- * * *|te|und ver _|gieb uns _|
 G3 A B2 c2 | B2 A2 G2 E2- | EDEF G4 | G3 A Bc B2- | BA A4 G2 | cBAG F3 D | G4 F2 A2- | AG G4 F2 | %44
w: un- * * ser|Schuld, _ _ _|_ _ _ _ _|als _ _ _ wir|_ ver- las- *|* * * * * sen|un- sern Schul-|* * * di-|
 G8 | E4 E4 | G4 A4 | A4 A4 | A4 A4- | A4 A4 | A8 | E3 D E2 F2- | F2 E2 F4 | EDEF G4 | F3 E D4 | %55
w: gern,|und führ|uns nicht|in Ver-|su chung,|_ son-|dern|er- * * lö-|* se uns|von _ _ _ _|dem _ _|
 E2 G3 FFE | G6 F2 | E2 D2 E4 | D6 E2 | F8 | E3 D EF G2- | G2 FE D2 E2- | E2 D2 E4 | D8 |] %64
w: Ü- * * * *||* * bel.|A- *|||||men.|
V:2
 z8 | z4 G4 | A4 B4 | B4 z2 c2 | B3 c d2 d2 | c4 z2 d2 | d2 e4 dc | B4 A4 | d4 d4 | B2 c2 d2 c2 | %10
w: |Va-|ter un-|ser, Va-|ter _ _ un-|ser, der|du bist _ _|_ im|Him- mel,|ge- hei- * *|
 A3 B c2 d2- | d2 c2 dA d2- | dccB d4 | e4 z2 e2- | e2 d2 e4 | z2 c3 Bcd | e3 f g4 | e4 f4 | e8 | %19
w: |* li- get _ wer-||de dein|_ Na- me,|zu _ _ _|_ _ _|komm dein|Reich,|
 d4 d4 | c4 d4 | e8 | d8 | d4 d4 | c4 d4- | d4 f4 | e4 d4 | e4 d4- | d4 z2 e2- | ed e2 d4 | B4 e4 | %31
w: dein Wil-|le ge-|sche-|he|im Him-|mel und|_ auf|Er- *|* den.|_ Un-|* * * ser|täg- lich|
 A4 B2 c2 | d3 e f4 | e8 | f6 ed | e4 d4 | B2 e4 e2 | e4 e3 f | g4 e4 | e3 f ga g2 | e4 e3 d | %41
w: Brot gieb uns|heu- * *|te|und ver- *|gieb uns|un- * ser|Schuld, als _|_ wir|ver- * * * las-|sen un- *|
 e2 E2 F4 | G3 G A2 D2 | d8 | B2 e4 dc | B4 c4 | B4 A3 B | c4 d2 e2 | d4 c2 A2- | ABcd c2 A2 | c8 | %51
w: * se- ren|Schul- * * di-|gern,|und für _ _|_ uns|nicht in Ver-|su- * *|||chung,|
 c4 A2 d2- | d2 c2 d4 | c4 B2 c2 | d3 c BG d2- | d2 c2 d4 | B8 | c2 d2 c2 BA | B6 c2 | d3 c A2 B2 | %60
w: son- dern er-|* * lö-|se uns _|_ _ _ _ von|_ _ dem|Ü-||* bel.|A- * * *|
 c6 B2- | B2 c2 d2 c2- | c2 d2 c3 B/A/ | B8 |] %64
w: |||men.|
V:3
 z8 | z8 | z8 | z8 | G8 | A4 B4 | B4 B4 | B4 c4 | B4 A4 | G8 | z4 A4 | A4 A2 A2 | G4 A4 | c4 B4 | %14
w: ||||Va-|ter un-|ser, der|du bist|im Him-|mel,|ge-|hei- li- get|wer- de|dein Na-|
 A4 B4 | A4 AGAB | c4 d4 | c4 d4 | B2 c4 BA | GABc d2 G2 | c4 G2 A2 | B4 c4 | A3 G A2 B2- | %23
w: |me, zu _ _ _|_ komm|dein Reich,|dein Wil- * *||le ge- *|sche- *||
 B2 A2 B2 A2 | G4 A4 | G4 F4 | G3 A Bc d2 | c3 B A4 | G4 z2 G2- | GA/B/ c2 A4 | G3 A B2 G2 | %31
w: * * * he|als im|Him- mel|und _ _ _ auf|Er- * *|den. Un-|* * * * ser|täg- * * lich|
 c4 G4 | A4 F4 | G6 FE | D2 A3 GAB | c4 A4 | G6 A2 | B2 c2 B2 c2- | c2 BA G3 A | BAGF E2 G2- | %40
w: Brot gieb|uns heu-||te und ver- * *|gieb uns|un- *|* * ser Schuld,|_ _ _ _ als|wir _ _ _ las- *|
 GABc B4 | e4 A2 d2- | dccB d3 c | B2 AG A4 | G2 E4 E2 | G4 A4 | G4 c3 B | A3 G F2 E2 | F4 E2 F2- | %49
w: * * * * sen|un- * sern|_ _ _ _ Schul- *||di- gern, und|für uns|nicht in _|_ _ _ ver-|su- * *|
 F2 ED E2 F2 | E8 | A8 | A4 A4 | A4 G4 | A4 B4 | G4 A4 | G8 | G8 | G8- | F8 | G8- | G8- | G8- | %63
w: |chung,|son-|dern er-|lö- se|uns von|dem Ü-||bel.|A-||men.|_||
 G8 |] %64
w: |
V:4
 C,4 D,4 | E,4 E,4 | z2 F,2 E,3 F, | G,2 E,2 F,4 | G,4 z4 | z4 G,4- | G,2 E,3 D,E,F, | %7
w: Va- ter|un- ser,|der du _|bist im Him-|mel,|der|_ du bist _ _|
 G,4 A,2 F,2 | G,4 D,4 | G,,2 C,2 B,,2 C,2 | D,E,F,G, A,2 D,2- | D,C, A,,2 D,2 D,2 | E,4 D,3 C, | %13
w: _ im Him-||mel, ge- hei- *||* * * li- get|wer- de dein|
 A,,B,,C,D, E,F, G,2 | F,4 E,4 | A,,8 | A,4 G,4 | A,4 D,4 | E,2 C,2 C,D,E,F, | G,4 G,4 | %20
w: Na- * * * * * *||me|zu komm|dein Reich,|dein _ Wil- * * *|* le|
 A,4 G,2 F,2 | E,4 A,,4 | D,3 E, F,2 G,2- | G,2 F,2 G,2 D,2 | E,4 D,4 | G,,4 D,4 | C,3 B,, G,,4 | %27
w: ge- sche- *|* he|als _ im Him-|* * * mel|und auf|Er- *||
 C,4 D,4 | G,,4 C,4- | C,4 D,4 | E,4 E,4 | F,4 E,4 | D,4 D,4 | C,8 | D,4 D,4 | C,4 D,4 | E,4 E,4 | %37
w: |den. Un-|* sr|täg- lich|Brot gieb|uns heu-|te|und ver-|gieb uns|un- ser|
 E,8 | E,4 E,4 | E,4 E,4 | E,4 E,4 | C,4 D,4 | E,4 D,4 | D,8 | z2 C,2 C,B,,C,D, | E,4 A,,4 | %46
w: Schuld,|als wir|ver- las-|sen un-|se- ren|Schul- di-|gern,|und für _ _ _|_ uns|
 E,4 F,4 | F,3 E, D,2 C,2 | D,4 A,,2 D,2- | D,2 C,B,, A,,2 D,2 | A,,8 | A,,3 B,, C,2 D,2- | %52
w: nicht in|Ver- * * *|su- * *||chung,|son- dern ner- lö-|
 D,C, A,,2 D,3 C, | A,,B,,C,D, E,4 | D,4 G,3 F, | E,4 D,4 | E,6 D,2 | C,2 B,,2 C,4 | G,,8 | D,8 | %60
w: * * se uns _|_ _ _ _ _|von dem _|_ Ü-||* * bel.|A-||
 C,6 G,,2- | G,,2 A,,2 B,,2 C,2- | C,2 B,,2 C,4 | G,,8 |] %64
w: |||men.|

